chainIcons/colored/56-min.svg

<svg xmlns="http://www.w3.org/2000/svg" viewBox="0 0 29.06 34.18" fill="#F0B90B"><path d="M3.2695310000000006,17.08984375 L3.2890619999999995,23.69921875 L8.90625,27.00390575 L8.90625,30.87499975 L0.003906000000000631,25.65234375 L0.003906000000000631,15.15624975 zM3.2695310000000006,10.48046875 L3.2695310000000006,14.332031749999999 L0,12.394531749999999 L0,8.54296875 L3.2695310000000006,6.609374750000001 L6.558593999999999,8.54296875 zM11.253906,8.54296875 L14.523437999999999,6.609374750000001 L17.808594,8.54296875 L14.523437999999999,10.48046875 zM11.253906,8.54296875"/><path d="M5.636718999999999,22.33203175 L5.636718999999999,18.46093775 L8.90625,20.39453175 L8.90625,24.24609375 zM11.253906,28.39062475 L14.523437999999999,30.32812475 L17.808594,28.39062475 L17.808594,32.24218775 L14.523437999999999,34.17968775 L11.253906,32.24218775 zM22.503906,8.54296875 L25.773438,6.609374750000001 L29.058594,8.54296875 L29.058594,12.394531749999999 L25.773438,14.332031749999999 L25.773438,10.48046875 zM25.773438,23.69921875 L25.792969,17.08984375 L29.0625,15.15624975 L29.0625,25.65234375 L20.160156,30.87499975 L20.160156,27.00390575 zM25.773438,23.69921875"/><path d="M23.425781,22.33203175 L20.15625,24.24609375 L20.15625,20.39453175 L23.425781,18.46093775 zM23.425781,22.33203175"/><path d="M23.425781,11.847655750000001 L23.445312,15.71874975 L17.8125,19.02343775 L17.8125,25.65234375 L14.542969,27.57031275 L11.269531,25.65234375 L11.269531,19.02343775 L5.636718999999999,15.71874975 L5.636718999999999,11.847655750000001 L8.921875,9.91406275 L14.519531,13.23437475 L20.152344,9.91406275 L23.441406,11.847655750000001 zM5.636718999999999,5.242187749999999 L14.523437999999999,-2.500000002569891e-7 L23.425781,5.242187749999999 L20.15625,7.1757817500000005 L14.523437999999999,3.85546875 L8.90625,7.1757817500000005 zM5.636718999999999,5.242187749999999"/></svg>

<svg xmlns="http://www.w3.org/2000/svg" fill="#F0B90B" viewBox="0 0 29.06 34.18"><path d="m3.27 17.09.02 6.61 5.616 3.304v3.871L.004 25.652V15.156zm0-6.61v3.852L0 12.395V8.543l3.27-1.934 3.289 1.934zm7.984-1.937 3.27-1.934 3.285 1.934-3.286 1.937zm0 0"/><path d="M5.637 22.332v-3.871l3.27 1.934v3.851zm5.617 6.059 3.27 1.937 3.285-1.937v3.851l-3.286 1.938-3.27-1.938zm11.25-19.848 3.27-1.934 3.285 1.934v3.852l-3.286 1.937V10.48zm3.27 15.156.019-6.61 3.27-1.933v10.496l-8.903 5.223v-3.871zm0 0"/><path d="m23.426 22.332-3.27 1.914v-3.851l3.27-1.934zm0 0"/><path d="m23.426 11.848.02 3.87-5.634 3.305v6.63l-3.269 1.917-3.273-1.918v-6.629L5.637 15.72v-3.871l3.285-1.934 5.598 3.32 5.632-3.32 3.29 1.934zM5.636 5.242 14.524 0l8.903 5.242-3.27 1.934-5.633-3.32-5.617 3.32zm0 0"/></svg>
